resources/edit.svg

<svg xmlns="http://www.w3.org/2000/svg" width="16" height="16" fill="#f4f4f7" viewBox="0 0 16 16"><path d="M14.354,2.353 L13.646,1.646 C12.8634135,0.869077203 11.6005865,0.869077203 10.818,1.646 L10.439,2.025 C10.243809,2.22024993 10.243809,2.53675007 10.439,2.732 L13.268,5.561 C13.4632499,5.75619097 13.7797501,5.75619097 13.975,5.561 L14.354,5.182 C15.1310392,4.39907156 15.1310392,3.13592844 14.354,2.353 L14.354,2.353 Z M9.732,3.439 C9.53675007,3.24380903 9.22024993,3.24380903 9.025,3.439 L3.246,9.218 C3.04609788,9.4202372 2.89195626,9.66304436 2.794,9.93 L1.038,14.32 C0.978937968,14.4730418 0.998703668,14.64532 1.09089211,14.7810086 C1.18308054,14.9166972 1.33596355,14.998534 1.5,15 C1.56446593,14.9999016 1.62830455,14.9873376 1.688,14.963 L6.07,13.211 C6.33884461,13.1135406 6.58319198,12.9586052 6.786,12.757 L12.565,6.979 C12.760191,6.78375007 12.760191,6.46724993 12.565,6.272 L9.732,3.439 Z M5.161,12.5 L2.612,13.52 C2.57485383,13.5348687 2.53242052,13.5261642 2.50412814,13.4978719 C2.47583577,13.4695795 2.46713127,13.4271462 2.482,13.39 L3.5,10.831 C3.51340062,10.80154 3.54023032,10.780387 3.5720041,10.7742308 C3.60377787,10.7680746 3.63656633,10.7776766 3.66,10.8 L5.2,12.335 C5.22422581,12.3595088 5.23412532,12.3947644 5.22619838,12.4283014 C5.21827143,12.4618385 5.1936351,12.488931 5.161,12.5 L5.161,12.5 Z"/></svg>

<svg width="16" height="16" fill="#f4f4f7">
  <path d="m14.354 2.353-.708-.707a2.007 2.007 0 0 0-2.828 0l-.379.379a.5.5 0 0 0 0 .707l2.829 2.829a.5.5 0 0 0 .707 0l.379-.379a2.008 2.008 0 0 0 0-2.829ZM9.732 3.439a.5.5 0 0 0-.707 0L3.246 9.218c-.2.202-.354.445-.452.712l-1.756 4.39a.5.5 0 0 0 .65.643l4.382-1.752c.269-.097.513-.252.716-.454l5.779-5.778a.5.5 0 0 0 0-.707L9.732 3.439ZM5.161 12.5l-2.549 1.02a.1.1 0 0 1-.13-.13L3.5 10.831a.1.1 0 0 1 .16-.031l1.54 1.535a.1.1 0 0 1-.039.165Z"/>
</svg>
